X:6
T:GB/7b/6 A Brisk Young Sailor Courted Me
%%VWML:GB-7b-6-0
F:http://www.vwml.org/record/GB/7b/6
T:Version 1 of 2
C:Mr. Ford, Scaynes Hill, Sussex, 08 P:F.W. J(ekyll)
C:Transcribed by Simon Furey and Lewis Jones
W:Transcribers' note: For a version of this song in 6/8 time see GB/6a/44A.
L:1/4
M:6/4
I:linebreak $
K:E
G | B2 B F G A | G2 F E2 B | e2 e B c e | d2 c B2 B |$ B c d e d e | c B c G F E | F2 G B c B | G2 F E2 |]

